client/src/asserts/icons/icn_repeat.svg

<svg width="16" height="16" viewBox="0 0 16 16" fill="none" xmlns="http://www.w3.org/2000/svg">
<path d="M14.9859 5.65799C14.9768 5.79458 14.9335 5.9266 14.8561 6.05408C14.7786 6.18156 14.6806 6.2453 14.5621 6.2453H10.0505C9.83179 6.2544 9.72698 6.09961 9.73609 5.78092L11.4587 4.05998C10.4652 3.18586 9.31227 2.7488 7.99981 2.7488C7.05192 2.7488 6.17466 2.98326 5.36805 3.45219C4.56143 3.92113 3.92342 4.55851 3.45403 5.36434C2.98465 6.17018 2.74995 7.04885 2.74995 8.00038C2.74995 8.9519 2.98465 9.8283 3.45403 10.6296C3.92342 11.4309 4.56143 12.066 5.36805 12.5349C6.17466 13.0038 7.05192 13.2383 7.99981 13.2383C8.80187 13.2383 9.55608 13.0676 10.2624 12.7261C10.7056 12.5119 11.1066 12.2466 11.4654 11.9303C11.8234 11.6146 12.3607 11.5472 12.7368 11.8411C13.1237 12.1435 13.1913 12.7094 12.8366 13.0492C12.3099 13.5538 11.7093 13.9697 11.0349 14.2968C10.087 14.7566 9.0753 14.9865 7.99981 14.9865C7.05192 14.9865 6.14504 14.8022 5.27918 14.4334C4.41332 14.0646 3.66822 13.5684 3.04389 12.9446C2.41956 12.3209 1.92283 11.5765 1.5537 10.7115C1.18457 9.84651 1 8.94052 1 7.99355C1 7.04658 1.18457 6.14286 1.5537 5.28239C1.92283 4.42193 2.41956 3.67983 3.04389 3.05611C3.66822 2.43238 4.41332 1.93613 5.27918 1.56736C6.14504 1.19859 7.05192 1.0142 7.99981 1.0142C8.8839 1.0142 9.72926 1.17355 10.5359 1.49224C11.3425 1.81093 12.0648 2.2571 12.7028 2.83075L14.5348 1.00055C14.8538 0.991441 15.0087 1.09615 14.9996 1.31468L14.9859 5.65799Z" fill="#4B4B7C"/>
</svg>

<svg width="16" height="16" viewBox="0 0 16 16" xmlns="http://www.w3.org/2000/svg" fill="none"><path d="M14.986 5.658c-.009.137-.052.269-.13.396-.077.127-.175.191-.294.191h-4.512c-.219.009-.324-.146-.314-.464l1.723-1.721c-.994-.874-2.146-1.311-3.459-1.311-.948 0-1.825.234-2.632.703-.807.469-1.445 1.106-1.914 1.912-.469.806-.704 1.685-.704 2.636 0 .952.235 1.828.704 2.629.469.801 1.107 1.436 1.914 1.905.807.469 1.684.703 2.632.703.802 0 1.556-.171 2.263-.512.443-.214.844-.479 1.203-.796.358-.316.895-.383 1.271-.089.387.302.454.868.1 1.208-.527.505-1.127.92-1.802 1.248-.948.46-1.96.69-3.035.69-.948 0-1.855-.184-2.721-.553-.866-.369-1.611-.865-2.235-1.489-.624-.624-1.121-1.368-1.49-2.233s-.554-1.771-.554-2.718c0-.947.185-1.851.554-2.711.369-.86.866-1.603 1.49-2.226.624-.624 1.369-1.12 2.235-1.489.866-.369 1.773-.553 2.721-.553.884 0 1.729.159 2.536.478.807.319 1.529.765 2.167 1.339l1.832-1.83c.319-.009.474.096.465.314l-.014 4.343z" fill="#4B4B7C"/></svg>
